X: 220
M:C
L:1/8
K:D
f | ddf>d {ef}g>ef>d | {ef}g2 e>d c>BA>f | ddf>e {ef}g>ef>d | B<ge>c {/c}d2 A>f |
ddf>d {ef}g>ef>d | {ef}g2 e>d c>BA>c | (3def (3efg (3fed (3cBA | (3GAB (3ABc (3{/c}dAG (3FED !segno!|]


